X: 31
T:Paddy Fahy's
T:Hairy Chested Frog, The
M:C|
L:1/8
C:Paddy Fahy
R:reel
K:Ddor
DE|:~F3E FGAG|~F3G EDCE|EFFE FGAG|FDEC DCA,C|
~F3E FGAB|cAGF EDCE|DEFG AddB|cAGF EDCE:|
|:Dddc dcAG|~F3G EDCE|Dddc dcAG|Addc d2de|
^fd~d2 dcAG|~F3G EDCE|DEFG AddB|cAGF EDCE:|
